!!!!SEGMENT: pl-cz--d-ii-31--001_elsner-jozef--msza-b-op-80-kyrie.krn
!!!cenid: 18xx:186
!!!COM: Elsner, Józef
!!!COM-rismID: pe30000957
!!!CDT: 1769/06/01-1854/04/18
!!!CNT: Polish
!!!OPR: Msza B op. 80
!!!OTL: Kyrie
!!!OMV: 001
!!!PDT:
!!!AGN: Sacred; Mass
!!!SMS-siglum: PL-CZ
!!!SMS-shelfmark: D II-31
!!!SMS-shelfwork: 001-001 M
!!!NIFC-rismSourceID:
!!!NIFC-islandoraID:
!!!URL-pdf-islandora:
!!!URL-scan:
!!!ONB-nifc: UWAGA: części Mszy: Kyrie, Gloria, Graduale Duetto, Credo, Offertorium, Sanctus, Benedictus, Agnus Dei
!!!AIN: 1 bass 1 organ 2 soprn 1 tenor
!!!key:
**kern	**kern	**kern	**text	**kern	**text	**kern	**text	**kern	**text
*part5	*part5	*part4	*part4	*part3	*part3	*part2	*part2	*part1	*part1
*staff6	*staff5	*staff4	*staff4	*staff3	*staff3	*staff2	*staff2	*staff1	*staff1
*Iorgan	*Iempty	*Ibass	*	*Itenor	*	*Isoprn	*	*Isoprn	*
*I"Organo	*	*I"Basso.	*	*I"Tenore.	*	*I"2o Soprano	*	*I"1o Soprano	*
*I'Org.	*	*I'B.	*	*I'T.	*	*I'S.	*	*I'S.	*
*clefF4	*clefG2	*clefF4	*	*clefC4	*	*clefG2	*	*clefG2	*
*k[b-e-]	*k[b-e-]	*k[b-e-]	*	*k[b-e-]	*	*k[b-e-]	*	*k[b-e-]	*
*B-:	*B-:	*B-:	*	*B-:	*	*B-:	*	*B-:	*
*M3/4	*M3/4	*M3/4	*	*M3/4	*	*M3/4	*	*M3/4	*
*>[A,B,B,C]	*>[A,B,C]	*>[A,B,B,C]	*	*>[A,B,B,C]	*	*>[A,B,B,C]	*	*>[A,B,B,C]	*
*>A	*>A	*>A	*	*>A	*	*>A	*	*>A	*
!	!LO:TX:a:B:t=Andante	!	!	!	!	!	!	!LO:TX:a:B:t=Andante	!
4r	8d/L 8b-	4r	.	4r	.	4r	.	4r	.
.	8e-/J 8cc	.	.	.	.	.	.	.	.
=1	=1	=1	=1	=1	=1	=1	=1	=1	=1
2.BBB-/ [2.BB-	(2f\ 2dd	2.r	.	2.r	.	2.r	.	2.r	.
.	4d/) 4b-	.	.	.	.	.	.	.	.
=2	=2	=2	=2	=2	=2	=2	=2	=2	=2
2.BBB-/ 2.BB-]	2dd\ 2ff	2.r	.	2.r	.	2.r	.	2.r	.
.	4b-\ [4dd	.	.	.	.	.	.	.	.
=3	=3	=3	=3	=3	=3	=3	=3	=3	=3
*	*^	*	*	*	*	*	*	*	*
2EE-/ 2E-	8dd/L]	2g\	2.r	.	2.r	.	2.r	.	2.r	.
.	8cc/	.	.	.	.	.	.	.	.	.
.	8ee-/	.	.	.	.	.	.	.	.	.
.	8cc/	.	.	.	.	.	.	.	.	.
4FF/ 4F	8g/	4c\ 4e-	.	.	.	.	.	.	.	.
.	8a/J	.	.	.	.	.	.	.	.	.
*	*v	*v	*	*	*	*	*	*	*	*
=4	=4	=4	=4	=4	=4	=4	=4	=4	=4
8BB-/ 8B-	8d/ 8f 8b-	2.r	.	2.r	.	2.r	.	2.r	.
(8d\L	(8dd\L	.	.	.	.	.	.	.	.
8c\	8cc\	.	.	.	.	.	.	.	.
8B-\	8b-\	.	.	.	.	.	.	.	.
8A\	8a\	.	.	.	.	.	.	.	.
8G\J)	8g\J)	.	.	.	.	.	.	.	.
=5	=5	=5	=5	=5	=5	=5	=5	=5	=5
*>B	*>B	*>B	*	*>B	*	*>B	*	*>B	*
*^	*^	*	*	*	*	*	*	*	*
!LO:TX:a:t=[segno]:P:problem=znak segno na kresce taktowej przed taktem 5	!	!LO:TX:a:t=[segno]:P:problem=znak segno na kresce taktowej przed taktem 5	!	!LO:TX:a:t=[segno]:P:problem=znak segno na kresce taktowej przed taktem 5	!	!LO:TX:a:t=[segno]:P:problem=znak segno na kresce taktowej przed taktem 5	!	!LO:TX:a:t=[segno]:P:problem=znak segno na kresce taktowej przed taktem 5	!	!LO:TX:a:t=[segno]:P:problem=znak segno na kresce taktowej przed taktem 5	!
2.F/	8r	[2.f/	8r	2.r	.	2.r	.	2.r	.	2.r	.
.	8AA\L	.	8c\L	.	.	.	.	.	.	.	.
.	8BB-\	.	8d\	.	.	.	.	.	.	.	.
.	8AA\	.	8c\	.	.	.	.	.	.	.	.
.	8BB-\	.	8d\	.	.	.	.	.	.	.	.
.	8C\J	.	8e-\J	.	.	.	.	.	.	.	.
=6	=6	=6	=6	=6	=6	=6	=6	=6	=6	=6	=6
2.F/	8BB-\L	2.f/_	8d\L	2.r	.	2.r	.	2.r	.	2.r	.
.	8AA\	.	8c\	.	.	.	.	.	.	.	.
.	8BB-\	.	8d\	.	.	.	.	.	.	.	.
.	8C\	.	8e-\	.	.	.	.	.	.	.	.
.	8BB-\	.	8d\	.	.	.	.	.	.	.	.
.	8AA\J	.	8c\J	.	.	.	.	.	.	.	.
*	*	*v	*v	*	*	*	*	*	*	*	*
=7	=7	=7	=7	=7	=7	=7	=7	=7	=7	=7
!!pagebreak:original
2F/	2BB-\	2d/ 2f]	4r	.	4r	.	4r	.	4r	.
.	.	.	4r	.	4r	.	4r	.	4r	.
4r	4ryy	8d/L 8b-	4BB-/	Na	(8d\L	Na	4f/	Na	(8b-\L	Na
.	.	8e-/J 8cc	.	.	8e-\J)	.	.	.	8cc\J)	.
*v	*v	*	*	*	*	*	*	*	*	*
=8	=8	=8	=8	=8	=8	=8	=8	=8	=8
2.BBB-/ [2.BB-	2f/ 2dd	2BB-/	stop-	2f\	stop-	2f/	stop-	2dd\	stop-
.	4d/ 4b-	4BB-/	-niach	4d\	-niach	4f/	-niach	4b-\	-niach
=9	=9	=9	=9	=9	=9	=9	=9	=9	=9
!!LO:LB:g=original
2BBB-/ 2BB-]	2dd\ 2ff	2BB-/	twe-	2d\	twe-	2f/	twe-	2ff\	twe-
4GG/ 4G	4b-\ 4dd	4G\	-go	4B-\	-go	4b-\	-go	4dd\	-go
=10	=10	=10	=10	=10	=10	=10	=10	=10	=10
*	*^	*	*	*	*	*	*	*	*
4EE-/ 4E-	4g/ 4b- 4cc	4ryy	8E-\	u-	8B-\	u-	8g/	u-	8cc\	u-
.	.	.	8E-\	-pa-	8B-\	-pa-	8g/	-pa-	8cc\	-pa-
4.FF/ 4.F	4b-/ 4dd	2f\	4.F\	-da-	4B-\	-da-	4f/	-da-	4dd\	-da-
.	4a/ 4cc	.	.	.	4A\	-my	4f/	-my	4cc\	-my
8EE-/ 8E-	.	.	8E-\	-my	.	.	.	.	.	.
=11	=11	=11	=11	=11	=11	=11	=11	=11	=11	=11
8DD/L 8D	8b-/L	2f\	(8D\L	tro-	4B-\	tro-	4f/	tro-	(8b-\L	tro-
8BBB-/J 8BB-	8dd/J	.	8BB-\J)	.	.	.	.	.	8dd\J)	.
4FF/ 4F	4a/ 4cc	.	4F\	-nu	4A\	-nu	4f/	-nu	4cc\	-nu
4r	8f/L 8a 8cc	4ryy	4F\	Po-	8A\L	Po-	4f/	Po-	8cc\L	Po-
.	8b-/J 8dd	.	.	.	8B-\J	.	.	.	8dd\J	.
=12	=12	=12	=12	=12	=12	=12	=12	=12	=12	=12
!	!	!LO:N:vis=2	!	!	!	!	!	!	!	!
2.FF/ 2.F	4a/ 4cc 4ee-	2.f\	2F\	-tę-	(4c\	-tę-	2f/	-tę-	(4ee-\	-tę-
.	4b-/ 4dd	.	.	.	4B-\)	.	.	.	4dd\)	.
.	4f/ 4a 4cc 4ee-	.	4F\	-żny	4c\	-żny	4f/	-żny	4ee-\	-żny
=13	=13	=13	=13	=13	=13	=13	=13	=13	=13	=13
2.FF/ 2.F	4.b-/ 4.dd	2f\	4.F\	Sa-	(4.B-\	Sa-	[>4.f/	Sa-	(4.dd\	Sa-
.	8cc/ 8ee-	.	8F\	-ba-	8c\)	-ba-	8f/]	-ba-	8ee-\)	-ba-
.	4a/ 4cc	8f\L	4F\	-oth	4A\	-oth	8f/L	-oth	4cc\	-oth
.	.	8e-\J	.	.	.	.	8e-/J	.	.	.
*	*v	*v	*	*	*	*	*	*	*	*
=14	=14	=14	=14	=14	=14	=14	=14	=14	=14
4GG/ 4G	4d/ 4b-	8G\	wie-	8B-\	wie-	8d/	wie-	8b-\	wie-
.	.	8G\	-ku-	8B-\	-ku-	8d/	-ku-	8b-\	-ku-
4.EE-/ 4.E-	8g/L 8ee-	4.E-\	-i-	4.B-\	-i-	8g/L	-i-	8ee-\L	-i-
.	8f/ 8dd	.	.	.	.	8f/J	.	8dd\J	.
.	8e-/ 8cc	.	.	.	.	8e-/L	-sty	8cc\L	-sty
8EEn/ 8En	8d/J 8b-	8En\	-sty	8B-\	-sty	8d/J	.	8b-\J	.
=15	=15	=15	=15	=15	=15	=15	=15	=15	=15
4FF/ 4F	8d/L 8b-	4F\	Bo-	4F/	Bo-	8d/L	Bo-	8b-\L	Bo-
.	8e-/J 8cc	.	.	.	.	8e-/J	.	8cc\J	.
4FF/ 4F	4c/ 4a	4F\	-że	4F/	-że	4c/	-że	4a/	-że
4r	8d/L 8b-	4BB-/	Ja-	8d\L	Ja-	4f/	Ja-	8b-\L	Ja-
.	8e-/J 8cc	.	.	8e-\J	.	.	.	8cc\J	.
=16	=16	=16	=16	=16	=16	=16	=16	=16	=16
2.BBB-/ 2.BB-	2f/ 2dd	2BB-/	-każ	2f\	-każ	2f/	-każ	2dd\	-każ
.	4d/ 4b-	4BB-/	o-	4d\	o-	4f/	o-	4b-\	o-
=17	=17	=17	=17	=17	=17	=17	=17	=17	=17
!!LO:PB:g=original
*	*^	*	*	*	*	*	*	*	*
2BBB-/ 2BB-	2ff/	2dd\	2BB-/	-fia-	2d\	-fia-	2f/	-fia-	2ff\	-fia-
4GG/ 4G	4dd/	4b-\	4G\	-ra	4B-\	-ra	4b-\	-ra	4dd\	-ra
*	*v	*v	*	*	*	*	*	*	*	*
=18	=18	=18	=18	=18	=18	=18	=18	=18	=18
4EE-/ 4E-	4g/ 4b- 4cc	8E-\	mil-	8B-\	mil-	8g/	mil-	8cc\	mil-
.	.	8E-\	-szą	8B-\	-szą	8g/	-szą	8cc\	-szą
4.FF/ 4.F	4f/ 4b- 4dd	4.F\	Ci	4B-\	Ci	4f/	Ci	4dd\	Ci
.	4f/ 4a 4cc	.	.	4A\	bydz	4f/	bydż	4cc\	bydz
8EE-/ 8E-	.	8E-\	bydz	.	.	.	.	.	.
=19	=19	=19	=19	=19	=19	=19	=19	=19	=19
*	*^	*	*	*	*	*	*	*	*
8DD/L 8D	8b-/L	2f\	8D/L	mo-	4B-\	mo-	4f/	mo-	8b-\L	mo-
8BBB-/J 8BB-	8dd/J	.	8BB-/J	.	.	.	.	.	8dd\J	.
4FF/ 4F	4a/ 4cc	.	4F\	-że	4A\	-że	4f/	-że	4cc\	-że
4FFF/ 4FF	4cc/ 4ee-	4f\	4AA/	nad	4c\	nad	4f/	nad	4ee-\	nad
=20	=20	=20	=20	=20	=20	=20	=20	=20	=20	=20
2BBB-/ 2BB-	4b-/ 4dd	2f\	2BB-/	te	2B-\	te	2f/	te	(4dd\	te
.	4dd/ 4ff	.	.	.	.	.	.	.	4ff\)	.
4DD/ 4D	4b-/	4f\	4D/	o-	4B-\	o-	4f/	o-	4b-\	o-
=21	=21	=21	=21	=21	=21	=21	=21	=21	=21	=21
4EE-/ 4E-	8cc/L	2e-\ 2g	4E-\	-fia-	4G\	-fia-	4g/	-fia-	8cc\L	-fia-
.	8dd/J	.	.	.	.	.	.	.	8dd\J	.
4CC/ 4C	4ee-/	.	4C\	-rę	4c\	-rę	4g/	-rę	4ee-\	-rę
4FF/ 4F	4c/ 4e- 4g	4ryy	4F\	Chry-	4c\	Chry-	4e-/	Chry-	4a/	Chry-
*	*v	*v	*	*	*	*	*	*	*	*
=22	=22	=22	=22	=22	=22	=22	=22	=22	=22
4GG/ 4G	4B-/ 4d 4b-	4G\	-stu-	4B-\	-stu-	4d/	-stu-	4b-\	-stu-
4EE-/ 4E-	4e-/ 4g 4cc	4E-\	-sa	4G/	-sa	4g/	-sa	4cc\	-sa
4FF/ 4F	4c/ 4e- 4f 4a	4F\	za-	4c\	za-	4f/	za-	4a/	za-
=23	=23	=23	=23	=23	=23	=23	=23	=23	=23
.	8qqe-/ 8qqcc	.	.	8qqe-/	.	.	.	8qqcc/	.
*	*^	*	*	*	*	*	*	*	*
2BBB-/ 2BB-	2d/ 2f 2b-	2ryy	4BB-/	-ko-	4d\	-ko-	4f/	-ko-	4b-\	-ko-
.	.	.	4BB-/	-nu	4d\	-nu	4f/	-nu	4b-\	-nu
4AAA/ 4AA	8ff/L	4f\ 4cc	4AA/	nad	4c\	nad	4f/	nad	8ff\L	nad
.	8ee-/J	.	.	.	.	.	.	.	8ee-\J	.
=24	=24	=24	=24	=24	=24	=24	=24	=24	=24	=24
2BBB-/ 2BB-	(<4b-/ 4dd	2f\	2BB-/	te	2B-\	te	2f/	te	(4dd\	te
.	4dd/) 4ff	.	.	.	.	.	.	.	4ff\)	.
4DD/ 4D	4f/ 4b-	4ryy	4D/	o-	4B-\	o-	4f/	o-	4b-\	o-
=25	=25	=25	=25	=25	=25	=25	=25	=25	=25	=25
!!LO:LB:g=original
4EE-/ 4E-	8cc/L	2e-\ 2g	4E-\	-fia-	4G\	-fia-	4g/	-fia-	8cc\L	-fia-
.	8dd/J	.	.	.	.	.	.	.	8dd\J	.
4CC/ 4C	4ee-/	.	4C/	-rę	4c\	-rę	4g/	-rę	4ee-\	-rę
4FF/ 4F	4c/ 4e- 4a	4ryy	4F\	Chy-	4c\	Chy-	4e-/	Chy-	4a/	Chy-
*	*v	*v	*	*	*	*	*	*	*	*
=26	=26	=26	=26	=26	=26	=26	=26	=26	=26
4GG/ 4G	4B-/ 4d 4b-	4G\	-stu-	4B-\	-stu-	4d/	-stu-	4b-/	-stu-
4EE-/ 4E-	4e-/ 4g 4cc	4E-\	-sa	4G\	-sa	4g/	-sa	4cc/	-sa
4FF/ 4F	4c/ 4e- 4f 4a	4F\	za-	4c\	za-	4f/	za-	4a/	za-
=27	=27	=27	=27	=27	=27	=27	=27	=27	=27
2.BBB-/ 2.BB-	(<2.c/ 2.e- 2.f 2.a	2.BB-/	-ko-	2.c\	-ko-	(2f/	-ko-	2.a/	-ko-
.	.	.	.	.	.	4e-/)	.	.	.
=28	=28	=28	=28	=28	=28	=28	=28	=28	=28
8BBB-/ 8BB-	8d/ 8f 8b-)	4BB-/	-nu.	4B-/	-nu.	4d/	-nu.	4b-/	-nu.
(8d\L	(8dd\L	.	.	.	.	.	.	.	.
8c\	8cc\	4r	.	4r	.	4r	.	4r	.
8B-\	8b-\	.	.	.	.	.	.	.	.
!LO:TX:b:t=dal Segno.	!	!	!	!	!	!	!	!	!
8A\	8a\	4r	.	4r	.	4r	.	4r	.
8G\J)	8g\J)	.	.	.	.	.	.	.	.
!LO:TX:a:t=[segno]:P:problem=znak segno na kresce taktowej po takcie 28	!LO:TX:a:t=[segno]:P:problem=znak segno na kresce taktowej po takcie 28	!LO:TX:a:t=[segno]:P:problem=znak segno na kresce taktowej po takcie 28	!	!LO:TX:a:t=[segno]:P:problem=znak segno na kresce taktowej po takcie 28	!	!LO:TX:a:t=[segno]:P:problem=znak segno na kresce taktowej po takcie 28	!	!LO:TX:a:t=[segno]:P:problem=znak segno na kresce taktowej po takcie 28	!
=29	=29	=29	=29	=29	=29	=29	=29	=29	=29
*>C	*>C	*>C	*	*>C	*	*>C	*	*>C	*
*^	*^	*	*	*	*	*	*	*	*
!	!	!	!	!LO:TX:b:t=dal Segno.	!	!LO:TX:b:t=dal Segno	!	!LO:TX:b:t=dal Segno	!	!LO:TX:b:t=dal Segno	!
[2.F/	8r	[2.f/	8r	2.r	.	2.r	.	2.r	.	2.r	.
.	8AA\L	.	8c\L	.	.	.	.	.	.	.	.
.	8BB-\	.	8d\	.	.	.	.	.	.	.	.
.	8AA\	.	8c\	.	.	.	.	.	.	.	.
.	8BB-\	.	8d\	.	.	.	.	.	.	.	.
.	8C\J	.	8e-\J	.	.	.	.	.	.	.	.
=30	=30	=30	=30	=30	=30	=30	=30	=30	=30	=30	=30
2.F/_	8BB-\L	2.f/]	8d\L	2.r	.	2.r	.	2.r	.	2.r	.
.	8AA\	.	8c\	.	.	.	.	.	.	.	.
.	8BB-\	.	8d\	.	.	.	.	.	.	.	.
.	8C\	.	8e-\	.	.	.	.	.	.	.	.
.	8BB-\	.	8d\	.	.	.	.	.	.	.	.
.	8AA\J	.	8c\J	.	.	.	.	.	.	.	.
*	*	*v	*v	*	*	*	*	*	*	*	*
=31	=31	=31	=31	=31	=31	=31	=31	=31	=31	=31
2F/]	8BB-\L	2d/ 2f	2.r	.	2.r	.	2.r	.	2.r	.
.	8D\J	.	.	.	.	.	.	.	.	.
.	8BB-/L	.	.	.	.	.	.	.	.	.
.	8FF/	.	.	.	.	.	.	.	.	.
4ryy	8DD/	4B-/ 4d 4f	.	.	.	.	.	.	.	.
.	8FF/J	.	.	.	.	.	.	.	.	.
*v	*v	*	*	*	*	*	*	*	*	*
=32	=32	=32	=32	=32	=32	=32	=32	=32	=32
2BBB-/	2B-/ 2d 2f	4r	.	4r	.	4r	.	4r	.
!LO:TX:b:t=pod partyturą teksty kolejnych zwrotek	!	!	!	!	!	!	!	!	!
.	.	4r	.	4r	.	4r	.	4r	.
==	==	==	==	==	==	==	==	==	==
*-	*-	*-	*-	*-	*-	*-	*-	*-	*-
!!!system-decoration: s1,s2,s3,s4{(s5,s6)}
!!!RDF**kern: > = above
!!!RDF**kern: < = below
!!!ENC: Andrzej Borzym
!!!END: 2020-03-02
!!!ENC: Marta Lawrence
!!!END: 2020-04-02
